X: 1343
T: The Mason's Apron
R:Reel
B:O'Neill's 1343
Z:Transcribed by Trish O'Neil
M:C|
L:1/8
K:A
(ed)|c>A (3AAA ABAF|EFAc dcBA|d>B (3BBB BcBA|Bcde fefg|
a>A (3AAA ABAF|EFAc dcBA|Bcde fefa|(3AAA cBA2||
e2|cAeA fAeA|cAeA fedc|dBfB bBfB|defg afed|
(3cBA eA fAeA|EFAc dcBA|Bcde fefa|(3AAA cBA2|]


